svgs/sharp-solid/watch-smart.svg

<svg xmlns="http://www.w3.org/2000/svg" viewBox="0 0 384 512"><!--! Font Awesome Pro 6.6.0 by @fontawesome - https://fontawesome.com License - https://fontawesome.com/license (Commercial License) Copyright 2024 Fonticons, Inc. --><path d="M64 0l0 48 256 0 0-48L64 0zM384 80L0 80 0 432l384 0 0-352zM216 160l0 86.1 41 41 17 17L240 337.9l-17-17-48-48-7-7 0-9.9 0-96 0-24 48 0 0 24zM320 512l0-48L64 464l0 48 256 0z"/></svg>

<svg xmlns="http://www.w3.org/2000/svg" viewBox="0 0 384 512"><!--! Font Awesome Pro 6.4.2 by @fontawesome - https://fontawesome.com License - https://fontawesome.com/license (Commercial License) Copyright 2023 Fonticons, Inc. --><path d="M64 0V48H320V0H64zM384 80H0V432H384V80zM216 160v86.1l41 41 17 17L240 337.9l-17-17-48-48-7-7V256 160 136h48v24zM320 512V464H64v48H320z"/></svg>
